svgs/sharp-regular/clipboard-medical.svg

<svg xmlns="http://www.w3.org/2000/svg" viewBox="0 0 384 512"><!--! Font Awesome Pro 6.6.0 by @fontawesome - https://fontawesome.com License - https://fontawesome.com/license (Commercial License) Copyright 2024 Fonticons, Inc. --><path d="M336 64l-32 0-33.6 0C263 27.5 230.7 0 192 0s-71 27.5-78.4 64L80 64 48 64 0 64l0 48L0 464l0 48 48 0 288 0 48 0 0-48 0-352 0-48-48 0zM80 112l0 48 112 0 112 0 0-48 32 0 0 352L48 464l0-352 32 0zm88-32a24 24 0 1 1 48 0 24 24 0 1 1 -48 0zm-8 208l-64 0 0 64 64 0 0 64 64 0 0-64 64 0 0-64-64 0 0-64-64 0 0 64z"/></svg>

<svg xmlns="http://www.w3.org/2000/svg" viewBox="0 0 384 512"><!--! Font Awesome Pro 6.5.2 by @fontawesome - https://fontawesome.com License - https://fontawesome.com/license (Commercial License) Copyright 2024 Fonticons, Inc. --><path d="M336 64H304 270.4C263 27.5 230.7 0 192 0s-71 27.5-78.4 64H80 48 0v48V464v48H48 336h48V464 112 64H336zM80 112v48H192 304V112h32V464H48V112H80zm88-32a24 24 0 1 1 48 0 24 24 0 1 1 -48 0zm-8 208H96v64h64v64h64V352h64V288H224V224H160v64z"/></svg>
